proprietary/assets/images/login-options/e-herkenning-logo.svg

<svg xmlns="http://www.w3.org/2000/svg" viewBox="0 0 194 34"><g fill="none" fill-rule="evenodd"><path d="M66 8.629V27h3.905V16.775c-.01-3.094 1.434-4.73 4.247-4.792h.2c.586 0 1.064.086 1.424.269L76 8.322C75.6 8.11 75.117 8 74.55 8c-1.05 0-1.961.325-2.75.975-.657.534-1.238 1.29-1.745 2.274-.016.031-.054.05-.088.04a.08.08 0 01-.062-.077V8.044L66 8.629zM78 .582v26.277h3.937v-5.007l.02-.053 2.584-2.954a.09.09 0 01.063-.026h.005a.078.078 0 01.06.037l3.827 5.94c.997 1.477 2.255 2.201 3.793 2.204.514 0 1.055-.1 1.633-.297v-3.688a2.67 2.67 0 01-.638.068c-.728 0-1.358-.4-1.88-1.174l-2.079-3.056a71.51 71.51 0 01-1.952-2.958.082.082 0 01.009-.096l1.96-2.252L94 7.954h-4.56l-7.363 8.616a.08.08 0 01-.088.023.081.081 0 01-.052-.076V0L78 .582zM128 27V15.154c0-2.125-.628-3.852-1.882-5.202-1.193-1.302-2.638-1.95-4.361-1.952-1.98.001-3.59.765-4.841 2.3a.074.074 0 01-.088.024.08.08 0 01-.05-.074V8.19L113 8.765V27h3.779V15.684c-.002-1.332.358-2.401 1.083-3.197.681-.742 1.522-1.12 2.508-1.118 1.027-.002 1.905.375 2.604 1.118.746.793 1.118 1.865 1.118 3.197V27H128zM147 27V15.154c0-2.125-.628-3.852-1.882-5.202-1.191-1.302-2.637-1.95-4.36-1.952-1.978.002-3.583.765-4.841 2.302a.07.07 0 01-.085.022.077.077 0 01-.05-.074V8.19L132 8.765V27h3.781V15.684c0-1.332.359-2.401 1.082-3.197.68-.742 1.523-1.12 2.51-1.118 1.026-.002 1.903.375 2.6 1.117.748.797 1.121 1.866 1.12 3.198V27H147zM156 26V8.02L152 8v18zM175 27V15.154c-.003-2.124-.63-3.852-1.883-5.202-1.191-1.302-2.638-1.95-4.36-1.952-1.983.001-3.585.765-4.843 2.302a.07.07 0 01-.083.022.08.08 0 01-.052-.074V8.19L160 8.765V27h3.78V15.684c0-1.332.358-2.401 1.084-3.197.68-.743 1.52-1.12 2.505-1.118h.005c1.028 0 1.898.376 2.597 1.117.745.794 1.12 1.866 1.118 3.198V27H175zM189.136 22.227c-.7.706-1.54 1.061-2.502 1.061h-.005a3.574 3.574 0 01-2.598-1.061c-.749-.753-1.123-1.715-1.12-2.864v-4.056c-.003-1.195.371-2.169 1.12-2.9.702-.662 1.572-.994 2.598-.992.987-.002 1.823.331 2.507.994.723.732 1.085 1.703 1.084 2.898v4.056c.001 1.147-.361 2.109-1.084 2.864M186.995 34c1.624 0 3.591-.657 4.87-1.938 1.422-1.394 2.135-3.23 2.135-5.525V8.084l-3.78.633v1.493a.08.08 0 01-.049.074.071.071 0 01-.083-.024c-1.257-1.508-2.865-2.257-4.845-2.26-1.723.003-3.17.628-4.364 1.885-1.254 1.304-1.878 2.931-1.879 4.901v5.234c.001 1.972.625 3.587 1.88 4.868 1.193 1.234 2.64 1.85 4.363 1.85 2.026-.003 3.63-.73 4.845-2.192a.071.071 0 01.083-.024.08.08 0 01.049.074v2.463c.001 1.133-.29 2-.886 2.578-.594.579-1.478.86-2.64.86-2.01.002-3.779-.72-5.292-2.163l-.43 4.294c1.694.903 3.702 1.372 6.023 1.372M24 26h4V15h-4zM24 11h4V0h-4zM40.516 0v10.761H30.92L29 14.974h11.516V26H45V0z" fill="#DE0367"/><path d="M7.072 26C3.164 25.999.002 22.787 0 18.822V7.177C.001 3.213 3.164.002 7.072 0H20v4.463H7.072c-1.476.001-2.674 1.217-2.674 2.714v11.645c0 1.499 1.198 2.711 2.674 2.714H20V26H7.072z" fill="#223669"/><path fill="#223669" d="M7 11v4h10.067L19 11z"/><path d="M51.985 19.48c.03 1.138.405 2.156 1.207 2.964a3.751 3.751 0 002.753 1.143c1.281 0 2.51-.271 3.68-.815a9.684 9.684 0 002.713-1.939l-.124 4.179-.061.04-.826.523a6.573 6.573 0 01-1.331.659c-.59.233-1.232.418-1.93.558-.805.137-1.688.208-2.648.208-2.108 0-3.858-.761-5.27-2.287C48.717 23.143 48 21.1 48 18.57v-2.033c0-2.482.78-4.522 2.345-6.143C51.865 8.795 53.802 8 56.173 8c1.98 0 3.604.58 4.882 1.731C62.352 10.885 63 12.375 63 14.225v.107c-.007 3.178-1.943 4.741-5.939 4.753h-3.967v-3.101h3.541c.82 0 1.449-.172 1.875-.533.426-.363.637-.908.636-1.612.003-.753-.25-1.336-.755-1.718-.503-.384-1.244-.568-2.218-.568-1.417-.001-2.51.466-3.249 1.397-.628.761-.897 1.77-.94 2.955 0 0-.108 1.519 0 3.574M98.986 19.479c.031 1.137.404 2.156 1.208 2.964a3.748 3.748 0 002.752 1.143c1.281 0 2.507-.27 3.682-.814a9.677 9.677 0 002.709-1.94l-.124 4.18a.525.525 0 01-.06.038l-.823.525a6.55 6.55 0 01-1.333.658c-.588.232-1.232.419-1.93.557-.804.139-1.687.21-2.649.21-2.107 0-3.856-.762-5.268-2.288C95.716 23.142 95 21.1 95 18.569v-2.032c0-2.483.782-4.523 2.346-6.143 1.52-1.6 3.456-2.393 5.83-2.394 1.978 0 3.602.579 4.878 1.73 1.298 1.154 1.945 2.645 1.946 4.494v.107c-.006 3.178-1.942 4.742-5.939 4.755h-3.965v-3.102h3.54c.821 0 1.448-.172 1.873-.533.427-.364.64-.908.637-1.613.003-.752-.251-1.335-.755-1.717-.502-.385-1.242-.569-2.216-.569-1.42 0-2.51.466-3.25 1.398-.627.761-.898 1.77-.94 2.954 0 0-.108 1.52 0 3.575" fill="#DE0367"/><path d="M157 3.48c0-1.629-.787-2.42-2.428-2.48h-.18c-1.618.012-2.392.853-2.392 2.48 0 1.71.774 2.507 2.392 2.52h.285c1.568-.06 2.323-.81 2.323-2.52" fill="#DE0768"/></g></svg>

<svg width="45" height="26" viewBox="0 0 45 26" fill="none" xmlns="http://www.w3.org/2000/svg">
<path fill-rule="evenodd" clip-rule="evenodd" d="M24 26H28V15H24V26ZM24 11H28V0H24V11ZM40.516 0V10.761H30.92L29 14.974H40.516V26H45V0H40.516Z" fill="#DE0367"/>
<path fill-rule="evenodd" clip-rule="evenodd" d="M7.072 26C3.164 25.999 0.002 22.787 0 18.822V7.177C0.001 3.213 3.164 0.002 7.072 0H20V4.463H7.072C5.596 4.464 4.398 5.68 4.398 7.177V18.822C4.398 20.321 5.596 21.533 7.072 21.536H20V26H7.072Z" fill="#223669"/>
<path fill-rule="evenodd" clip-rule="evenodd" d="M7 11V15H17.067L19 11H7Z" fill="#223669"/>
</svg>
